!!!!SEGMENT: pl-sa--165-a-iv-15--001_staromiejski-j--vesperae-de-sanctis-ex-c-domine.krn
!!!cenid: 17xx:348
!!!COM: Staromiejski, J.
!!!COM-rismID: pe41024944
!!!CDT: <1737->1737
!!!CNT:
!!!OPR: Vesperae de Sanctis ex C
!!!OTL: Domine
!!!OMV: 001
!!!PDT:
!!!AGN: Sacred; Vespers
!!!SMS-siglum: PL-SA
!!!SMS-shelfmark: 165/A IV 15
!!!SMS-shelfwork: 001-001 M
!!!SMS-variant: Violino 1mo: PL-SA 165/A IV 15:53; Violino 2do: PL-SA 165/A IV 15:61
!!!SMS-altvar: Violino 1mo.: PL-SA 165/A IV 15:27; Violino Secundo: PL-SA 165/A IV 15:35
!!!NIFC-rismSourceID: 1001077264
!!!NIFC-rismChildID: 1001077264
!!!NIFC-islandoraID: none
!!!URL-pdf-islandora:
!!!URL-scan: https://bc.bdsandomierz.pl/dlibra/publication/1551/edition/1519/content @EN{Scan in the Sandomierz Diocese Digital Library} @PL{Skany w portalu Cyfrowa Biblioteka Diecezjalna w Sandomierzu}
!!!ONB-nifc: UWAGA: części Vesperae: Domine, Dixit Dominus, Confitebor, Beatus vir, Laudate, Laudate Dominum, Magnificat
!!!AIN: 1 alto 3 empty 1 organ 1 tenor 2 violn 1 vox
!!!key:
**kern	**fba	**kern	**kern	**kern	**text	**kern	**text	**kern	**text	**kern	**text	**kern	**kern
*part9	*	*part8	*part7	*part6	*part6	*part5	*part5	*part4	*part4	*part3	*part3	*part2	*part1
*	*	*group3	*group3	*group2	*	*group2	*	*group2	*	*group2	*	*group1	*group1
*staff9	*	*staff8	*staff7	*staff6	*staff6	*staff5	*staff5	*staff4	*staff4	*staff3	*staff3	*staff2	*staff1
*Iorgan	*	*Ivioln	*Ivioln	*Iempty	*	*Itenor	*	*Ialto	*	*Ivox	*	*Iempty	*Iempty
*I"Organo	*	*I"Violino 2do	*I"Violino 1mo.	*I"Baſso.	*	*I"Tenore	*	*I"Alto	*	*I"Canto	*	*I"Clarino Secundo	*I"Clarino.. Imo
*I'Org.	*	*I'V-no 2	*I'V-no 1	*I'B.	*	*I'T.	*	*I'A.	*	*I'S.	*	*I'Cl-no 2	*I'Cl-no 1
*clefF4	*	*clefG2	*clefG2	*clefF4	*	*clefC4	*	*clefC3	*	*clefC1	*	*clefG2	*clefG2
*	*	*ITrd1c2	*ITrd1c2	*	*	*	*	*	*	*	*	*	*
*k[]	*	*k[]	*k[]	*k[]	*	*k[]	*	*k[]	*	*k[]	*	*k[]	*k[]
*C:	*	*C:	*C:	*C:	*	*C:	*	*C:	*	*C:	*	*C:	*C:
*M4/4	*	*M4/4	*M4/4	*M4/4	*	*M4/4	*	*M4/4	*	*M4/4	*	*M4/4	*M4/4
*met(c)	*	*met(c)	*met(c)	*met(c)	*	*met(c)	*	*met(c)	*	*met(c)	*	*met(c)	*met(c)
=1	=1	=1	=1	=1	=1	=1	=1	=1	=1	=1	=1	=1	=1
!LO:TX:a:t=P:problem=mixed beam	!	!LO:TX:a:t=allo	!LO:TX:a:t=Allo.	!	!	!LO:TX:a:t=Alle.	!	!	!	!LO:TX:a:t=allo	!	!	!
!LO:TX:b:t=Domine	!	!LO:TX:b:t=Domine ad adiuvandu(m)	!LO:TX:b:t=Domine	!LO:TX:b:t=P:problem="D" przed kluczem	!	!LO:TX:b:t=P:problem="D" przed kluczem	!	!LO:TX:b:t=P:problem="D" przed kluczem	!	!LO:TX:b:t=P:problem="D" przed kluczem	!	!LO:TX:a:t=D:problem=przed kluczem	!LO:TX:a:t=D:problem=przed kluczem
!LO:TX:a:t=P:problem=wszystkie caudy z prawej strony	!	!LO:TX:a:t=P:problem=wszystkie caudy z prawej strony	!LO:TX:a:t=P:problem=wszystkie caudy z prawej strony	!LO:TX:a:t=P:problem=wszystkie caudy z prawej strony	!	!LO:TX:a:t=P:problem=wszystkie caudy z prawej strony	!	!LO:TX:a:t=P:problem=wszystkie caudy z prawej strony	!	!LO:TX:a:t=P:problem=wszystkie caudy z prawej strony	!	!LO:TX:a:t=P:problem=wszystkie caudy z prawej strony	!LO:TX:a:t=P:problem=wszystkie caudy z prawej strony
!	!	!LO:TX:a:t=P:problem=przy kluczu krzyżyki f#, cc# ff# jeden nad drugim	!	!	!	!	!	!	!	!	!	!	!
*	*	*^	*	*	*	*	*	*	*	*	*	*	*
8C/L	.	8.ee/L	8.ee\L	8.gg\L	8.c\	[D]o-	8.c\	[D]o-	8.g\	[D]o-	8.ee\	[D]o-	8cc\L	8.ee\L
8c\	.	.	.	.	.	.	.	.	.	.	.	.	8cc\	.
.	.	16ee/	16ee\	16gg\Jk	16c\	-mi-	16c\	-mi-	16g\	-mi-	16ee\	-mi-	.	16ee\K
8c\	.	8ee/	8ee\	8gg\L	8c\	-ne	8c\	-ne	8g\	-ne	8ee\	-ne	8cc\	8ee\
8c\J	.	8ee/J	8ee\J	8gg\J	8c\	ad	8c\	ad	8g\	ad	8ee\	ad	8cc\J	8ee\J
8c\L	.	8dd/L	8dd\L	4gg\	8B\	ad-	8d\	ad-	8g\	ad-	8cc\	ad-	4g/	8dd\L
8c\	.	8ee/J	8ee\J	.	8c\	-ju-	8c\	-ju-	8g\	-ju-	8ee\	-ju-	.	8ee\
8d\	.	8r	8r	8r	8d\	-van-	8B\	-van-	8f\	-van-	8ff\	-van-	8r	8ff\
8c\J	.	8ee/	8ee\	8gg\	8c\	-dum	8c\	-dum	8g\	-dum	8ee\	-dum	8cc\	8ee\J
=2	=2	=2	=2	=2	=2	=2	=2	=2	=2	=2	=2	=2	=2	=2
*	*	*	*	*	*	*ij	*	*	*	*	*	*	*	*
8c\L	.	8dd/L	8dd\L	4gg\	8B\	ad-	8d\	me	8g\	me	8dd\	me	4g/	8dd\L
8c\	.	8ee/J	8ee\J	.	8c\	-ju-	8c\	fe-	8g\	fe-	8ee\	fe-	.	8ee\
8d\	.	8r	8r	8r	8d\	-van-	8B\	-sti-	8f\	-sti-	8ff\	-sti-	8r	8ff\
8c\J	.	8ee/	8dd\	8gg\	8c\	-dum	8c\	-na	8g\	-na	8ee\	-na	8cc\	8ee\J
*	*	*	*	*	*	*Xij	*	*	*	*	*	*	*	*
8B\L	.	8dd/L	8cc\L	4.gg\	8B\	fe-	8d\	Do-	8g\	Do-	8dd\	Do-	4g/	4dd\
8A\	.	8cc/J	8b\J	.	8A\	-sti-	8A\	-mi-	8g\	-mi-	8cc\	-mi-	.	.
8G\	.	8b/L	8a\L	.	8G\	-na	8d\	-ne	8g\	-ne	8b\	-ne	8r	8r
*	*	*	*	*	*	*ij	*	*	*	*	*	*	*	*
8F\J	.	16cc/	16b\	16aa\LL	8F\	fe	8d\	fe-	8g\	fe-	8b\	fe-	8g/	8dd\
.	.	16ee/Jk	16cc\Jk	16bb\JJ	.	.	.	.	.	.	.	.	.	.
=3	=3	=3	=3	=3	=3	=3	=3	=3	=3	=3	=3	=3	=3	=3
!LO:TX:a:t=P:problem=mixed beam	!	!	!	!	!	!	!	!	!	!	!	!	!	!
8E\L	.	8ee/L	8dd\L	8ccc\L	8E\	-sti-	8e\	-sti-	8g\	-sti-	8cc\	-sti-	8cc\L	8ee\L
8F\	6 5	8aa/J	8gg\J	8ddd\	8F\	-na	8d\	-na	8a\	-na	8cc\	-na	16dd\L	16ff\L
*	*	*	*	*	*	*Xij	*	*	*	*	*	*	*	*
.	.	.	.	.	.	.	.	.	.	.	.	.	16cc\JJ	16ee\JJ
8G\	1 4	8dd/L	8cc\L	8gg\	8.G\	Do-	8.d\	Do-	8.g\	Do-	8cc\	Do-	8g/L	8.dd\L
8GG/J	6 3	16gg\	16ff\	8bb\J	.	.	.	.	.	.	8b\	-mi-	8G/J	.
.	.	16ffJk	16eeJk	.	16GG/	-mi-	16d\	-mi-	16g\	-mi-	.	.	.	16dd\Jk
!LO:TX:a:t=P:problem=mixed beam	!	!	!	!	!	!	!	!	!	!	!	!	!	!
8C/L	.	8ee/L	8dd\L	8ccc\L	8C/	-ne	8e\	-ne	8g\	-ne	8cc\	-ne	8G/L	8cc/L
8c\	.	8cc/	8b\	8cc\	8r	.	8c\	ad	8g\	ad	8ee\	ad	8G/	8g/
8c\	.	8cc/	8b\	8cc\	4r	.	8c\	ad-	8g\	ad-	8ee\	ad-	8G/	8g/
8c\J	.	8cc/J	8b\J	8cc\J	.	.	8c\	-ju-	8g\	-ju-	8ee\	-ju-	8G/J	8g/J
*	*	*v	*v	*	*	*	*	*	*	*	*	*	*	*
=4	=4	=4	=4	=4	=4	=4	=4	=4	=4	=4	=4	=4	=4
!	!	!LO:TX:a:t=P:problem=mixed beam	!LO:TX:a:t=P:problem=mixed beam	!	!	!	!	!	!	!	!	!	!
8B\L	6	8a\L	8b\L	0r	.	8B\	-van-	8g\	-van-	8dd\	-van-	4G/	4g/
8B\	.	8A/	8B/	.	.	8B\	-dum	8d\	-dum	8a\	-dum	.	.
!	!	!	!	!	!	!	!	!LO:SIC:l:s=me:v	!	!	!	!	!
8B\	.	8a\	8b\	.	.	8B\	me	8g\	fe-	8dd\	me	4r	4r
!	!	!	!	!	!	!	!	!LO:SIC:l:s=fe-:v	!	!	!	!	!
8B\J	.	8a\J	8b\J	.	.	8B\	fe-	8g\	-sti-	8dd\	fe-	.	.
!	!	!	!	!	!	!	!	!LO:LB:g=original	!	!LO:LB:g=original	!	!	!
!	!	!LO:TX:a:t=P:problem=mixed beam	!LO:TX:a:t=P:problem=mixed beam	!	!	!	!	!LO:SIC:l:s=-sti-:v	!	!	!	!	!
8A\L	7	8g\L	8a\L	.	.	4A\	-sti-	4f\	-na	4cc\	-sti-	4c/	4c/
8A\	.	8G/	8A/	.	.	.	.	.	.	.	.	.	.
!	!	!	!	!	!	!LO:LB:g=original	!	!LO:SIC:l:s=-na:v	!	!	!	!	!
8A\	6\	8g\	8a\	.	.	8A\	-na	8f\	.	8cc\	-na	4r	4r
*	*	*	*	*	*	*	*	*	*ij	*	*ij	*	*
8A\J	.	8g\J	8a\J	.	.	8A\	fe-	8f\	fe-	8cc\	fe-	.	.
=5	=5	=5	=5	=5	=5	=5	=5	=5	=5	=5	=5	=5	=5
!	!	!LO:TX:a:t=P:problem=mixed beam	!	!	!	!	!	!	!	!	!	!	!
8G\L	.	8f\L	8g/L	.	.	4G/	-sti-	4g\	-sti-	4b\	-sti-	4G/	4g/
8G\	.	8F/	8G/	.	.	.	.	.	.	.	.	.	.
8G\	.	8f\	8g/	.	.	8G/	-na	8d\	-na	8b\	-na	4r	4r
*	*	*	*	*	*	*	*ij	*	*	*	*	*	*
8G\J	.	8f\J	8g/J	.	.	8G/	fe-	8g\	fe-	8a\	fe-	.	.
!LO:TX:a:t=P:problem=mixed beam	!	!	!	!	!	!	!	!	!	!	!	!	!
8c\L	.	8d/L	8d/L	.	.	8c\	-sti-	8g\	-sti-	8a\	-sti-	2r	2r
8c\	.	8d/	8d/	.	.	8c\	-na	8g\	-na	8a\	-na	.	.
*	*	*	*	*	*	*	*Xij	*	*Xij	*	*Xij	*	*
8d\	.	8c/	8d/	.	.	8d\	Do-	8.f#X\	Do-	8.a\	Do-	.	.
8D/J	.	8c/J	8d/J	.	.	8D/	-mi-	.	.	.	.	.	.
.	.	.	.	.	.	.	.	16f#\	-mi-	16a\	-mi-	.	.
!	!	!LO:LB:g=original	!	!	!	!	!	!	!	!	!	!	!
=6	=6	=6	=6	=6	=6	=6	=6	=6	=6	=6	=6	=6	=6
!	!	!LO:TX:a:t=P:problem=mixed beam	!LO:TX:a:t=P:problem=mixed beam	!	!	!	!	!	!	!	!	!	!
8G\L	.	8F\L	8G/L	8r	.	8G/	-ne	8g\	-ne	8g\	-ne	8r	8r
8G\	.	8a\	8dd\	8G\	ad	8d\	ad	8g\	ad	8b\	ad	8g/L	8dd\L
8G\	.	8a\	8dd\	8G\	ad-	8d\	ad-	8g\	ad-	8b\	ad-	8g/	8dd\
8G\J	.	8a\J	8dd\J	8G\	-ju-	8d\	-ju-	8g\	-ju-	8a\	-ju-	8g/J	8dd\J
!LO:TX:a:t=P:problem=mixed beam	!	!	!	!LO:LB:g=original	!	!	!	!	!	!	!	!	!
8Fn\L	4_ 2	4a\	4dd\	8Fn\	-van-	8d\	-van-	8g\	-van-	8b\	-van-	8g/L	8dd\L
8FF/	.	.	.	8GG/	-dum-	8d\	-dum	8g\	-dum	8b\	-dum	8g/	8dd\
8F\	X	8r	8r	8F\	me	8d\	me	8g\	me	8b\	me	8g/	8dd\
8F\J	.	8a\	8dd\	8F\	fe-	8d\	fe-	8g\	fe-	8b\	fe-	8g/J	8dd\J
!LO:LB:g=original	!	!	!	!	!	!	!	!	!	!	!	!	!
=7	=7	=7	=7	=7	=7	=7	=7	=7	=7	=7	=7	=7	=7
!LO:TX:a:t=P:problem=mixed beam	!	!	!	!LO:TX:a:t=P:problem=mixed beam	!	!	!	!	!	!	!	!	!
8E\L	6	4b\	4ee\	8E\L	-sti-	8e\	-sti-	8g\	-sti-	4cc\	-sti-	8cc\L	8ee\L
8EE/	.	.	.	8GG/J	.	8e\	-na	8g\	-na	.	.	8cc\	8ee\
*	*	*	*	*	*	*	*	*	*ij	*	*	*	*
8E\	.	8r	8r	8E\	-na	8c\	fe-	8g\	fe-	8cc\	-na	8cc\	8ee\
*	*	*	*	*	*ij	*	*	*	*	*	*ij	*	*
8E\J	.	8b\	8gg\	8E\	fe-	8d\	-sti-	8g\	-sti-	8cc\	fe-	8cc\J	8ee\J
!	!	!	!	!	!	!	!	!	!	!	!	!	!LO:LB:g=original
8D/L	7	4cc\	4ff\	8D/L	-sti-	4d\	-na	4f\	-na	4b\	-sti-	4dd\	4ff\
8GG/	7	.	.	8GG/J	.	.	.	.	.	.	.	.	.
8C/	.	4b\	4ee\	8C/	-na	8e\	fe-	8g\	fe-	8cc\	-na	4cc\	4ee\
8E/J	.	.	.	8E\	fe-	8e\	-sti-	8g\	-sti-	8cc\	fe-	.	.
=8	=8	=8	=8	=8	=8	=8	=8	=8	=8	=8	=8	=8	=8
!LO:TX:a:t=P:problem=mixed beam	!	!	!	!	!	!	!	!	!	!	!	!	!
8F\L	.	4b\	4.dd\	8F\	-sti-	8d\	-na	8a\	.	8cc\	-sti-	4cc\	4aa\
8F\	.	.	.	8F\	-na	8d\	fe-	8a\	-na	8dd\	-na	.	.
*	*	*	*	*	*Xij	*	*	*	*Xij	*	*	*	*
8G\	.	4a\	.	8.G\	Do-	8d\	-sti-	8.g\	Do-	8.b\	Do-	4g/	8.dd\L
8GG/J	.	.	8dd\	.	.	8d\	-na	.	.	.	.	.	.
.	.	.	.	16GG/	-mi-	.	.	16g\	-mi-	16b\	-mi-	.	16dd\Jk
!	!	!	!	!	!	!	!	!	!	!	!	!	!LO:TX:a:t=P:problem=mixed beam
4C/	.	4b\	4cc\	4C/	-ne	8.d\	Do-	4g\	-ne	4cc\	-ne	8e/L	8cc\L
*	*	*	*	*	*	*	*	*	*	*	*Xij	*	*
.	.	.	.	.	.	.	.	.	.	.	.	8c/	8c/
.	.	.	.	.	.	16d\	-mi-	.	.	.	.	.	.
4r	.	4r	4r	4r	.	8e\	-ne	4r	.	4r	.	8e/	8e/
.	.	.	.	.	.	8r	.	.	.	.	.	8g/J	8g/J
!	!	!	!LO:LB:g=original	!	!	!LO:LB:g=original	!	!LO:LB:g=original	!	!LO:LB:g=original	!	!	!
=9	=9	=9	=9	=9	=9	=9	=9	=9	=9	=9	=9	=9	=9
*	*	*	*	*	*	*	*	*2\right	*	*2\right	*	*	*
!LO:TX:a:i:t=Solo	!	!	!	!	!	!	!	!LO:TX:a:i:t=Solo	!	!LO:TX:a:t=Solo	!	!	!
4C/	.	2d/	2g/	00r	.	00r	.	2e\	Glo-	2g\	Glo-	4c/	4c/
4r	.	.	.	.	.	.	.	.	.	.	.	4r	4r
4C/	.	16d/LL	16g/LL	.	.	.	.	16e\LL	.	16g\LL	.	4c/	4c/
.	.	16c/	16f/	.	.	.	.	16d\	.	16f\	.	.	.
.	.	16B/	16e/	.	.	.	.	16c\	.	16e\	.	.	.
.	.	16c/JJ	16f/JJ	.	.	.	.	16d\JJ	.	16f\JJ	.	.	.
4r	.	8d/L	8g/L	.	.	.	.	8e\L	.	8g\L	.	4r	4r
.	.	8e/J	8a/J	.	.	.	.	8f\J	.	8a\J	.	.	.
!	!	!	!	!	!	!	!	!	!	!	!	!LO:LB:g=original	!
=10	=10	=10	=10	=10	=10	=10	=10	=10	=10	=10	=10	=10	=10
4C/	.	8.d/L	8.g/L	.	.	.	.	8.e\	.	8.g/	.	4c/	4c/
.	.	16B/Jk	16c/Jk	.	.	.	.	16d\	-ri-	16c/	-ri-	.	.
4r	.	4B/	4c/	.	.	.	.	4c\	-a	4c/	-a	4r	4r
4C/	.	16B/LL	16e/LL	.	.	.	.	16c\LL	Pa-	16e/LL	Pa-	4c/	4c/
.	.	16c/	16f/	.	.	.	.	16d\	.	16f/	.	.	.
.	.	16d/	16g/	.	.	.	.	16e\	.	16g/	.	.	.
.	.	16e/JJ	16a/JJ	.	.	.	.	16f\JJ	.	16a/JJ	.	.	.
4r	.	8f/L	8b-X\L	.	.	.	.	8g\	-tri	8b\	-tri	4r	4r
.	.	8f/J	8b-\J	.	.	.	.	8g\	et	8b\	et	.	.
=11	=11	=11	=11	=11	=11	=11	=11	=11	=11	=11	=11	=11	=11
4E\	.	4f/	4b\	.	.	.	.	8.g\	Fi-	8.b\	Fi-	4c/	4c/
.	.	.	.	.	.	.	.	16g\	-li-	16b\	-li-	.	.
4F\	7	4e/	4a\	.	.	.	.	4f\	-o	4a\	-o	4r	4r
!	!	!LO:N:acc=#	!	!	!	!	!	!	!	!LO:TX:b:t=P:problem=oprócz znaku powtórzenia tekstu, dopisane mało widoczne słowa	!	!	!
*	*	*	*2\right	*	*	*	*	*	*	*	*ij	*	*
4D\	#	2en/	2a\	.	.	.	.	2f#X\	Glo-	2a\	glo-	2r	2r
4r	.	.	.	.	.	.	.	.	.	.	.	.	.
=12	=12	=12	=12	=12	=12	=12	=12	=12	=12	=12	=12	=12	=12
4D\	#	16e/LL	16a\LL	.	.	.	.	16f\LL	.	16a\LL	.	0r	0r
.	.	16d/	16g\	.	.	.	.	16e\	.	16g\	.	.	.
.	.	16c/	16f#X\	.	.	.	.	16d\	.	16f\	.	.	.
.	.	16d/JJ	16g\JJ	.	.	.	.	16e\JJ	.	16g\JJ	.	.	.
4r	.	8e/L	8a\L	.	.	.	.	8f#X\L	.	8a\L	.	.	.
!	!	!	!LO:N:acc=#	!	!	!	!	!	!	!	!	!	!
.	.	8f/J	8bn\J	.	.	.	.	8g\J	.	8b\J	.	.	.
4D\	.	8.e/L	8.a/L	.	.	.	.	8.f#\	.	8.a\	.	.	.
.	.	16c/Jk	16d/Jk	.	.	.	.	16e\	-ri-	16d/	-ri-	.	.
4r	.	4c/	4d/	.	.	.	.	4d\	-a	4d/	-a	.	.
!	!	!LO:LB:g=original	!	!	!	!	!	!	!	!	!	!	!
=13	=13	=13	=13	=13	=13	=13	=13	=13	=13	=13	=13	=13	=13
4D\	.	16c/LL	16f#X\LL	0r	.	0r	.	16d\LL	Pa-	(16f\LL	Pa-	.	.
.	.	16d/	16g\	.	.	.	.	16e\	.	16g\	.	.	.
!	!	!LO:N:acc=#	!	!	!	!	!	!	!	!	!	!	!
.	.	16en/	16a\	.	.	.	.	16f#X\	.	16a\	.	.	.
.	.	16f/JJ	16b\JJ	.	.	.	.	16g\JJ	.	16b\JJ)	.	.	.
4r	.	8g/L	8cc\L	.	.	.	.	8a\	-tri	8cc\	-tri	.	.
.	.	8f/J	8cc\J	.	.	.	.	8a\	et	8cc\	et	.	.
4F#X\	.	4g/	4cc\	.	.	.	.	8.a\	fi-	8.cc\	fi-	.	.
.	.	.	.	.	.	.	.	16g\	-li-	16cc\	-li-	.	.
4G\	.	4f/	4b\	.	.	.	.	4g\	-o	4b\	-o	.	.
*	*	*	*	*	*	*	*	*	*	*	*Xij	*	*
!	!	!	!	!	!	!	!	!LO:LB:g=original	!	!	!	!	!
=14	=14	=14	=14	=14	=14	=14	=14	=14	=14	=14	=14	=14	=14
4GG/	5	4.a/	4.dd\	.	.	.	.	4.b\	et	4.dd\	et	4G/	4g/
4r	.	.	.	.	.	.	.	.	.	.	.	4r	4r
.	.	16g/LL	16cc\LL	.	.	.	.	16a\LL	Spi-	16cc\LL	Spi-	.	.
.	.	16f/JJ	16b\JJ	.	.	.	.	16g\JJ	.	16b\JJ	.	.	.
4GG/	6 4	4.b/	4.ee\	.	.	.	.	4.cc\	-ri-	4.ee\	-ri-	4G/	4g/
4r	.	.	.	.	.	.	.	.	.	.	.	4r	4r
.	.	16a/LL	16dd\LL	.	.	.	.	16b\LL	-tu-	16dd\	-tu-	.	.
.	.	16g/JJ	16cc\JJ	.	.	.	.	16a\JJ	-i	16dd\	-i	.	.
!	!	!	!	!	!	!	!	!	!	!LO:LB:g=original	!	!	!
=15	=15	=15	=15	=15	=15	=15	=15	=15	=15	=15	=15	=15	=15
4GG/	.	16f/LL	16b\LL	1r	.	1r	.	16g\LL	San-	16b\LL	San-	4G/	4g/
.	.	16g/	16cc\	.	.	.	.	16a\	.	16cc\	.	.	.
.	.	16a/	16dd\	.	.	.	.	16b\	.	16dd\	.	.	.
.	.	16g/JJ	16cc\JJ	.	.	.	.	16a\JJ	.	16cc\JJ	.	.	.
8r	.	8f/L	8b\L	.	.	.	.	8g\L	.	(8b\L	.	4r	4r
!	!	!LO:N:acc=#	!	!	!	!	!	!	!	!	!	!	!
8D\	.	8en/J	8a\J	.	.	.	.	8f#X\J	.	8a\J	.	.	.
!LO:TX:a:t=P:problem=mixed beam	!	!	!	!	!	!	!	!	!	!	!	!	!
8G\L	.	4f/	4b\	.	.	.	.	4g\	.	4b\)	.	4G/	4g/
8C\	.	.	.	.	.	.	.	.	.	.	.	.	.
8D\	4	4eny/	4a\	.	.	.	.	4f#X\	.	4a\	-cto-	4r	4r
8DD/J	3	.	.	.	.	.	.	.	.	.	.	.	.
=16	=16	=16	=16	=16	=16	=16	=16	=16	=16	=16	=16	=16	=16
!LO:TX:a:t=P:problem=mixed beam	!	!LO:TX:a:t=P:problem=mixed beam	!LO:TX:a:t=P:problem=mixed beam	!	!	!	!	!	!	!	!	!	!
8GG/L	.	8f/L	8g/L	8r	.	8r	.	8g\	-cto	8g\	.	8r	8r
!	!	!	!	!	!	!LO:TX:a:t=Tutt	!	!	!	!	!	!	!
8G\	.	8cc\	8bb\	16G\	Si-	16d\	Si-	16g\	Si-	16b\	Si-	8g/L	8dd\L
.	.	.	.	16G\	-cut	16d\	-cut	16g\	-cut	16b\	-cut	.	.
8G\	.	8cc\	8bb\	8G\	e-	8d\	e-	8g\	e-	8b\	e-	8g/	8dd\
8Fn\J	.	8cc\J	8bb\J	8Fn\	-rat	8d\	-rat	8g\	-rat	8b\	-rat	8g/J	8dd\J
!LO:LB:g=original	!	!	!	!	!	!	!	!	!	!	!	!	!
8E\L	.	4dd\	4ccc\	8E\	in	8e\	in	8g\	in	8cc\	in	4cc\	4ee\
8F\	.	.	.	8F\	prin-	8e\	prin-	8a\	prin-	8cc\	prin-	.	.
8G\	.	8r	8r	8G\	-ci-	8d\	-ci-	8g\	-ci-	8b\	-ci-	8r	8r
8F\J	.	8cc\	8bb\	8F\	-pi-	8d\	-pi-	8g\	pi-	8cc\	-pio-	8g/	8dd\
!	!	!	!LO:LB:g=original	!	!	!	!	!	!	!	!	!	!
=17	=17	=17	=17	=17	=17	=17	=17	=17	=17	=17	=17	=17	=17
!LO:TX:a:t=P:problem=zbędne pół taktu w cl-no-2	!	!LO:TX:a:t=P:problem=zbędne pół taktu w cl-no-2	!LO:TX:a:t=P:problem=zbędne pół taktu w cl-no-2	!LO:TX:a:t=P:problem=zbędne pół taktu w cl-no-2	!	!LO:TX:a:t=P:problem=zbędne pół taktu w cl-no-2	!	!LO:TX:a:t=P:problem=zbędne pół taktu w cl-no-2	!	!LO:TX:a:t=P:problem=zbędne pół taktu w cl-no-2	!	!LO:TX:a:t=P:problem=zbędne pół taktu	!LO:TX:a:t=P:problem=zbędne pół taktu w cl-no-2
2ryy	.	2ryy	2ryy	2ryy	.	2ryy	.	2ryy	.	2ryy	.	4cc\	2ryy
.	.	.	.	.	.	.	.	.	.	.	.	8r	.
.	.	.	.	.	.	.	.	.	.	.	.	8g/	.
=18	=18	=18	=18	=18	=18	=18	=18	=18	=18	=18	=18	=18	=18
8E\L	.	4dd\	4ccc\	8E\	-o	8e\	-o	8g\	-o	8cc\	-o	4cc\	4ee\
8F\	.	.	.	8F\	et-	8d\	et-	8a\	et	8cc\	et	.	.
!	!	!	!	!	!	!	!	!	!	!	!	!	!LO:LB:g=original
8G\	.	8r	8r	8G\	nunc	8d\	nunc	8g\	nunc	8b\	nunc	8r	8r
8F\J	.	8cc\	8bb\	8F\	et-	8d\	et-	8g\	et	8b\	et	8g/	8dd\
!	!	!	!	!	!	!	!	!	!	!	!	!LO:TX:a:t=P:problem=w źródle zbędna kreska taktowa	!
8E\L	.	8dd\L	8ccc\L	8E\	sem-	8e\	sem-	8g\	sem-	8cc\	sem-	8cc\L	8ee\L
8C\	.	8dd\	8ee\	8C/	-per	8e\	-per	8g\	-per-	8cc\	-per	8cc\	8ee\
!	!	!	!	!LO:LB:g=original	!	!	!	!	!	!	!	!	!
8c\	.	8dd\	8gg\	8c\	et	8c\	et	8g\	et	8ee\	et	8cc\	8ee\
8c\J	.	8dd\J	8gg\J	8c\	in	8c\	in	8g\	in	8ee\	in	8cc\J	8ee\J
=19	=19	=19	=19	=19	=19	=19	=19	=19	=19	=19	=19	=19	=19
8B\L	.	8cc\L	4gg\	8B\L	sae-	(8d\L	sae-	8g\	sae-	8dd\L	sae-	4g/	8dd\L
8c\	.	8dd\J	.	8c\J	.	8c\J)	.	8f\	-cu-	8ee\J	.	.	8ee\
8d\	.	8r	8r	8d\	-cu-	8B\	-cu-	8g\	-la	8ff\	-cu-	8r	8ff\
!	!	!	!	!	!	!	!	!LO:LB:g=original	!	!	!	!	!
8c\J	.	8dd\	8gg\	8c\	-la	8c\	-la	8g\	sae-	8ee\	-la	8cc\J	8ee\J
8B\L	.	8cc\L	4gg\	8B\	sae-	8d\	sae-	8g\	-cu-	8dd\	sae-	4g/	8dd\L
8c\	.	8dd\J	.	8c\	-cu-	8c\	-cu-	8f\	-lo-	8ee\	-cu-	.	8ee\
8d\	.	8r	8r	8d\	-lo-	8B\	-lo-	8g\	-rum	8ff\	-lo-	8r	8ff\
!	!	!	!	!	!	!	!	!	!	!	!	!LO:N:vis=4	!
8c\J	.	8dd\	8gg\	8c\	-rum	8c\	-rum	8f\	a-	8ee\	-rum	8cc\	8ee\J
!	!	!LO:LB:g=original	!	!	!	!	!	!	!	!	!	!	!
=20	=20	=20	=20	=20	=20	=20	=20	=20	=20	=20	=20	=20	=20
8B\L	.	8cc\L	4.gg\	8B\L	a-	8B\L	a-	4g\	-men	(8dd\L	a-	4g/	4dd\
8A\	.	8b\J	.	8A\	.	8c\J	.	.	.	8cc\J	.	.	.
8G\	.	8a\L	.	8G\J	.	4d\	-men	4g\	.	4b\)	.	8r	8r
8F\J	.	16b\L	16aa\LL	8F\	.	.	.	.	.	.	.	8g/	8dd\
.	.	16cc\JJ	16bb\JJ	.	.	.	.	.	.	.	.	.	.
!LO:TX:a:t=P:problem=mixed beam	!	!	!	!	!	!	!	!	!	!	!	!	!
*	*	*	*	*	*	*	*ij	*	*	*	*	*	*
8E\L	.	8dd\L	8ccc\L	8E\	.	8e\	a-	8g\L	a-	8cc\	-men	8cc\L	8ee\L
*	*	*	*	*	*	*	*	*	*	*	*ij	*	*
8F\	.	8gg\	8ddd\	8F\	.	8d\	.	8a\J	.	8cc\	a-	16dd\L	16ff\L
.	.	.	.	.	.	.	.	.	.	.	.	16cc\JJ	16ee\JJ
!	!	!	!	!LO:TX:a:t=P:problem=mixed beam	!	!	!	!	!	!	!	!	!
8G\	.	8cc\	8gg\	8G\L	.	4d\	.	4g\	.	(8cc\L	.	8g/L	8.dd\L
8GG/J	.	8ff\J	8bb\J	8GG/J	.	.	.	.	.	8b\J)	.	8g/J	.
.	.	.	.	.	.	.	.	.	.	.	.	.	16dd\Jk
=21	=21	=21	=21	=21	=21	=21	=21	=21	=21	=21	=21	=21	=21
4C/	.	8dd\L	8ccc\L	8C/	-men	8e\	-men	8g\	-men	8cc\	-men	8g/L	8cc/L
*	*	*	*	*	*	*	*Xij	*	*	*	*Xij	*	*
!	!	!	!	!	!	!	!	!	!	!LO:LB:g=original	!	!	!
.	.	8b\	8cc\	16c\	Do-	16c\	Do-	16g\	Do-	16ee\	Do-	8c/	8c/
!	!	!	!	!	!	!LO:LB:g=original	!	!	!	!	!	!	!
.	.	.	.	16c\	-mi-	16c\	-mi-	16g\	-mi-	16ee\	-mi-	.	.
4r	.	8b\	8cc\	8c\	-ne	8c\	-ne	8g\	-ne	8ee\	-ne	8c/	8c/
.	.	8b\J	8cc\J	8c\	ad	8c\	ad	8g\	ad	8ee\	ad	8c/J	8c/J
!	!	!	!	!	!	!	!	!	!	!	!	!LO:TX:a:t=P:problem=w źródle zbędna kreska taktowa	!
2r	.	8a\L	8b\L	8B\	ad-	8d\	ad-	8g\	ad-	8dd\	ad-	4G/	4G/
.	.	8b\	8cc\	8c\	-ju-	8c\	-ju-	8g\	-ju-	8ee\	-ju-	.	.
.	.	8cc\	8dd\	8d\	-van-	8B\	-van-	8f\	-van-	8ff\	-van-	8r	8r
.	.	8b\J	8cc\J	8c\	-dum	8c\	-dum	8g\	-dum	8ee\	-dum	8c/	8c/
!	!	!	!	!	!	!	!	!	!	!	!	!LO:LB:g=original	!
=22	=22	=22	=22	=22	=22	=22	=22	=22	=22	=22	=22	=22	=22
1r	.	8a\L	8b\L	8B\	me	8d\	me	8g\	me	8dd\	me	4G/	4G/
.	.	8b\	8cc\	8c\	fes-	8c\	fes-	8g\	fes-	8ee\	fe-	.	.
.	.	8cc\	8dd\	8d\	-ti-	8B\	-ti-	8f\	-ti-	8ff\	-sti-	8r	8r
.	.	8b\J	8cc\J	8c\	-na	8c\	-na	8g\	-na	8ee\	-na	8c/	8c/
*	*	*	*	*	*	*	*ij	*	*	*	*	*	*
.	.	8a\L	8b/L	8B\	Do-	8B\	Do-	8.g\	Do-	8dd\	Do-	4G/	4G/
.	.	8g\	8a/	8A\	-mi-	8c\	.	.	.	8cc\	-mi-	.	.
.	.	.	.	.	.	.	.	16g\	-mi-	.	.	.	.
.	.	8f\	8g/	8G\	-ne	8d\	-na	8g\	-na	8b\	-ne	8r	8r
!	!	!	!	!LO:LB:g=original	!	!	!	!	!	!	!	!	!
*	*	*	*	*	*	*	*	*	*	*	*ij	*	*
.	.	8e\J	8f/J	8F\	fe-	8d\	fe-	8g\	fe-	8b\	fe-	8G/	8G/
=23	=23	=23	=23	=23	=23	=23	=23	=23	=23	=23	=23	=23	=23
1r	.	8d/L	8e/L	8E\	-sti-	8e\	-sti-	8g\	-sti-	8dd\	-sti-	8c/L	8c/L
*	*	*	*	*	*	*	*	*	*	*	*	*Xtuplet	*
.	.	8e/	8f/	8F\	-na	8d\	-na	8a\	-na	8dd\	-na	24c/L	8c/
*	*	*	*	*	*	*	*Xij	*	*	*	*Xij	*	*
.	.	.	.	.	.	.	.	.	.	.	.	24c/	.
.	.	.	.	.	.	.	.	.	.	.	.	24c/JJ	.
.	.	8f/	8g/	8.G\	Do-	8.d\	Do-	8g\	Do-	8.b\	Do-	8g/L	8g/
.	.	8F/J	8G/J	.	.	.	.	8g\	-mi-	.	.	8G/J	8G/J
.	.	.	.	16GG/	-mi-	16d\	-mi-	.	.	16b\	-mi-	.	.
.	.	4B/	4c/	4C/	-ne	4e\	-ne	4g\	-ne	4cc\	-ne.	4c/	4c/
.	.	4r	4r	4r	.	4r	.	4r	.	4r	.	4r	4r
==	==	==	==	==	==	==	==	==	==	==	==	==	==
*-	*-	*-	*-	*-	*-	*-	*-	*-	*-	*-	*-	*-	*-
!!!system-decoration: [g1][g2][g3]s9
!!!RDF**kern: > = above
!!!RDF**kern: < = below
!!!ENC: Marta Lawrence
!!!END: 2020-09-19
!!!ENC: Tomasz Grochalski
!!!END: 2020-04-22
!!!YEC: Copyright 2022 Narodowy Instytut Fryderyka Chopina (https://polishscores.org)
!!!YEM: License CC-BY-4.0 (https://creativecommons.org/licenses/by/4.0)
